site/static/img/watermark.svg

<svg height="288" viewBox="0 0 375 288" width="375" xmlns="http://www.w3.org/2000/svg" xmlns:xlink="http://www.w3.org/1999/xlink"><mask id="a" fill="#fff"><path d="m0 .39084507h374.127632v373.28873193h-374.127632z" fill="#fff" fill-rule="evenodd"/></mask><g fill="#77b446" fill-rule="evenodd" opacity=".1" transform="translate(0 -1)"><path d="m159.262632 373.679577c-.422369 0-.85-.03301-1.281579-.100352-43.592106-6.830545-83.5631583-29.145686-112.5526319-62.833626-29.2947369-34.044455-45.42894742-77.595951-45.42894742-122.632923 0-103.5092429 83.91710522-187.72183093 187.06578932-187.72183093 103.146053 0 187.063158 84.21258803 187.063158 187.72183093 0 85.775968-57.748684 160.552817-140.43421 181.841989-4.410527 1.139525-8.898685-1.530369-10.030264-5.955105s1.525-8.931338 5.934211-10.065581c75.392105-19.412852 128.047368-87.600792 128.047368-165.821303 0-94.3890845-76.522368-171.1808978-170.580263-171.1808978-94.0592104 0-170.5828946 76.7918133-170.5828946 171.1808978 0 41.069102 14.7105263 80.78213 41.4223684 111.821303 26.4381579 30.724912 62.8828952 51.075264 102.6184212 57.302377 4.497368.705105 7.573684 4.934419 6.872368 9.447623-.635526 4.080106-4.142105 6.994278-8.132894 6.995598" mask="url(#a)" transform="translate(0 .929577)"/><path d="m215.868553 373.716813c-7.210527 0-15.263158-1.472271-22.255264-6.318221-10.777631-7.465669-16.242105-20.640846-16.242105-39.159772v-214.929137c0-4.567341 3.689474-8.269806 8.24079-8.269806 4.551315 0 8.242105 3.702465 8.242105 8.269806v214.929137c0 12.759243 3.069737 21.353874 9.122368 25.547536 10.275 7.117077 27.225.977112 27.393421.916373 4.251316-1.622799 9.014474.528169 10.628948 4.799736 1.613158 4.271567-.528948 9.046215-4.784211 10.665053-.610526.232394-9.531579 3.549295-20.346052 3.549295"/><path d="m185.609211 265.440317c-1.971053 0-3.947369-.705106-5.523685-2.135123-3.376315-3.063381-3.639473-8.292254-.588158-11.680458l99.257895-110.201144c3.051316-3.389525 8.263158-3.65361 11.64079-.590229 3.376315 3.06206 3.638158 8.292253.586842 11.680457l-99.257895 110.201145c-1.626316 1.806338-3.867105 2.725352-6.115789 2.725352"/><path d="m183.233947 313.871039c-2.356579 0-4.696052-1.010124-6.326315-2.965669l-75.889474-91.066902c-2.9197369-3.504401-2.4565791-8.71875 1.035526-11.650088 3.493421-2.930017 8.69079-2.463908 11.607895 1.039173l75.889474 91.068222c2.919736 3.503081 2.456579 8.71875-1.034211 11.648767-1.543421 1.294014-3.418421 1.926497-5.282895 1.926497"/><path d="m107.412895 256.654357c-1.261842 0-2.528948-.056778-3.802632-.170334-11.1644735-.99956-21.2736841-6.302377-28.4618419-14.932659-2.9184211-3.503081-2.4539474-8.72007 1.0381578-11.648767 3.4921053-2.930018 8.6894737-2.463909 11.6078948 1.040493 4.3644737 5.239436 10.5013158 8.458627 17.2815793 9.066021 6.777631.602113 13.390789-1.473592 18.614473-5.854754 5.223685-4.382482 8.432895-10.543574 9.038158-17.349031.603948-6.805458-1.469737-13.440581-5.839473-18.682659-2.919737-3.503081-2.457895-8.72007 1.032894-11.650088 3.492106-2.930017 8.688158-2.466549 11.609211 1.036532 7.194737 8.631602 10.610526 19.556778 9.614473 30.764525-.996052 11.206426-6.281578 21.352552-14.882894 28.569982-7.621053 6.394806-17.036842 9.810739-26.85 9.810739"/><path d="m107.344737 222.803741c-2.356579 0-4.696053-1.008803-6.326316-2.964348l-13.9802631-16.772007c-2.9197368-3.504402-2.456579-8.720071 1.0342105-11.650088 3.4921053-2.931338 8.6881579-2.465229 11.6092105 1.037852l13.9802631 16.772007c2.921053 3.503081 2.456579 8.71875-1.03421 11.650088-1.542106 1.294014-3.418421 1.926496-5.282895 1.926496"/><path d="m133.214737 201.086356c-2.357895 0-4.697369-1.008803-6.327632-2.965669l-13.701316-16.444543c-2.918421-3.504401-2.455263-8.72007 1.036843-11.650088 3.490789-2.930017 8.689473-2.463908 11.60921 1.040493l13.701316 16.444543c2.919737 3.504401 2.455263 8.72007-1.036842 11.650088-1.542105 1.292693-3.417105 1.925176-5.281579 1.925176"/><path d="m81.4761842 244.518486c-2.3578947 0-4.6960526-1.008803-6.3276316-2.965669l-13.5789473-16.297975c-2.9197369-3.504402-2.4552632-8.71875 1.0368421-11.650088 3.4907894-2.928698 8.6881579-2.463909 11.6078947 1.040492l13.5802632 16.297976c2.9197368 3.504401 2.4552631 8.71875-1.0368421 11.650088-1.5421053 1.292694-3.4171053 1.925176-5.281579 1.925176"/><path d="m185.609211 76.5450264c-14.867106 0-26.963158 15.8912852-26.963158 35.4242956 0 19.53169 12.096052 35.422976 26.963158 35.422976 14.868421 0 26.964473-15.891286 26.964473-35.422976 0-19.5330104-12.096052-35.4242956-26.964473-35.4242956m0 87.3868836c-23.956579 0-43.444737-23.310739-43.444737-51.962588 0-28.6544893 19.488158-51.9639083 43.444737-51.9639083 23.956578 0 43.448684 23.309419 43.448684 51.9639083 0 28.651849-19.492106 51.962588-43.448684 51.962588"/><path d="m263.383421 252.757658c-.977632 0-1.956579-.179577-2.893421-.540052-1.692105-.65361-5.644737-2.181338-36.384211-34.427377-2.931578-3.076585-2.823684-7.956866.242106-10.900088 3.065789-2.944542 7.928947-2.834947 10.863158.241637 8.765789 9.196743 18.917105 19.476233 25.417105 25.65581 5.40921-17.512764 15.101316-60.680018 19.167105-88.950264.606579-4.213468 4.507895-7.128961 8.701316-6.529489 4.2.608714 7.113158 4.518485 6.506579 8.731954-2.251316 15.653609-6.953947 39.798855-11.978947 61.517165-9.361843 40.455106-12.471053 42.285211-15.477632 44.054578-1.292105.760563-2.726316 1.146126-4.163158 1.146126"/></g></svg>

<?xml version="1.0" encoding="UTF-8"?>
<svg width="375px" height="288px" viewBox="0 0 375 288" version="1.1" xmlns="http://www.w3.org/2000/svg" xmlns:xlink="http://www.w3.org/1999/xlink">
    <!-- Generator: Sketch 51.3 (57544) - http://www.bohemiancoding.com/sketch -->
    <title>watermark</title>
    <desc>Created with Sketch.</desc>
    <defs>
        <polygon id="path-1" points="0 0.39084507 374.127632 0.39084507 374.127632 373.679577 0 373.679577"></polygon>
    </defs>
    <g id="Landing" stroke="none" stroke-width="1" fill="none" fill-rule="evenodd" opacity="0.100000001">
        <g id="Landing-v2" transform="translate(-190.000000, -3725.000000)">
            <g id="watermark" transform="translate(190.000000, 3724.000000)">
                <g id="Group-3" transform="translate(0.000000, 0.929577)">
                    <mask id="mask-2" fill="white">
                        <use xlink:href="#path-1"></use>
                    </mask>
                    <g id="Clip-2"></g>
                    <path d="M159.262632,373.679577 C158.840263,373.679577 158.412632,373.646567 157.981053,373.579225 C114.388947,366.74868 74.4178947,344.433539 45.4284211,310.745599 C16.1336842,276.701144 -0.000526315789,233.149648 -0.000526315789,188.112676 C-0.000526315789,84.6034331 83.9165789,0.39084507 187.065263,0.39084507 C290.211316,0.39084507 374.128421,84.6034331 374.128421,188.112676 C374.128421,273.888644 316.379737,348.665493 233.694211,369.954665 C229.283684,371.09419 224.795526,368.424296 223.663947,363.99956 C222.532368,359.574824 225.188947,355.068222 229.598158,353.933979 C304.990263,334.521127 357.645526,266.333187 357.645526,188.112676 C357.645526,93.7235915 281.123158,16.9317782 187.065263,16.9317782 C93.0060526,16.9317782 16.4823684,93.7235915 16.4823684,188.112676 C16.4823684,229.181778 31.1928947,268.894806 57.9047368,299.933979 C84.3428947,330.658891 120.787632,351.009243 160.523158,357.236356 C165.020526,357.941461 168.096842,362.170775 167.395526,366.683979 C166.76,370.764085 163.253421,373.678257 159.262632,373.679577" id="Fill-1" fill="#77B446" mask="url(#mask-2)"></path>
                </g>
                <path d="M215.868553,373.716813 C208.658026,373.716813 200.605395,372.244542 193.613289,367.398592 C182.835658,359.932923 177.371184,346.757746 177.371184,328.23882 L177.371184,113.309683 C177.371184,108.742342 181.060658,105.039877 185.611974,105.039877 C190.163289,105.039877 193.854079,108.742342 193.854079,113.309683 L193.854079,328.23882 C193.854079,340.998063 196.923816,349.592694 202.976447,353.786356 C213.251447,360.903433 230.201447,354.763468 230.369868,354.702729 C234.621184,353.07993 239.384342,355.230898 240.998816,359.502465 C242.611974,363.774032 240.469868,368.54868 236.214605,370.167518 C235.604079,370.399912 226.683026,373.716813 215.868553,373.716813" id="Fill-4" fill="#77B446"></path>
                <path d="M185.609211,265.440317 C183.638158,265.440317 181.661842,264.735211 180.085526,263.305194 C176.709211,260.241813 176.446053,255.01294 179.497368,251.624736 L278.755263,141.423592 C281.806579,138.034067 287.018421,137.769982 290.396053,140.833363 C293.772368,143.895423 294.034211,149.125616 290.982895,152.51382 L191.725,262.714965 C190.098684,264.521303 187.857895,265.440317 185.609211,265.440317" id="Fill-6" fill="#77B446"></path>
                <path d="M183.233947,313.871039 C180.877368,313.871039 178.537895,312.860915 176.907632,310.90537 L101.018158,219.838468 C98.0984211,216.334067 98.5615789,211.119718 102.053684,208.18838 C105.547105,205.258363 110.744474,205.724472 113.661579,209.227553 L189.551053,300.295775 C192.470789,303.798856 192.007632,309.014525 188.516842,311.944542 C186.973421,313.238556 185.098421,313.871039 183.233947,313.871039" id="Fill-8" fill="#77B446"></path>
                <path d="M107.412895,256.654357 C106.151053,256.654357 104.883947,256.597579 103.610263,256.484023 C92.4457895,255.484463 82.3365789,250.181646 75.1484211,241.551364 C72.23,238.048283 72.6944737,232.831294 76.1865789,229.902597 C79.6786842,226.972579 84.8760526,227.438688 87.7944737,230.94309 C92.1589474,236.182526 98.2957895,239.401717 105.076053,240.009111 C111.853684,240.611224 118.466842,238.535519 123.690526,234.154357 C128.914211,229.771875 132.123421,223.610783 132.728684,216.805326 C133.332632,209.999868 131.258947,203.364745 126.889211,198.122667 C123.969474,194.619586 124.431316,189.402597 127.922105,186.472579 C131.414211,183.542562 136.610263,184.00603 139.531316,187.509111 C146.726053,196.140713 150.141842,207.065889 149.145789,218.273636 C148.149737,229.480062 142.864211,239.626188 134.262895,246.843618 C126.641842,253.238424 117.226053,256.654357 107.412895,256.654357" id="Fill-10" fill="#77B446"></path>
                <path d="M107.344737,222.803741 C104.988158,222.803741 102.648684,221.794938 101.018421,219.839393 L87.0381579,203.067386 C84.1184211,199.562984 84.5815789,194.347315 88.0723684,191.417298 C91.5644737,188.48596 96.7605263,188.952069 99.6815789,192.45515 L113.661842,209.227157 C116.582895,212.730238 116.118421,217.945907 112.627632,220.877245 C111.085526,222.171259 109.209211,222.803741 107.344737,222.803741" id="Fill-12" fill="#77B446"></path>
                <path d="M133.214737,201.086356 C130.856842,201.086356 128.517368,200.077553 126.887105,198.120687 L113.185789,181.676144 C110.267368,178.171743 110.730526,172.956074 114.222632,170.026056 C117.713421,167.096039 122.912105,167.562148 125.831842,171.066549 L139.533158,187.511092 C142.452895,191.015493 141.988421,196.231162 138.496316,199.16118 C136.954211,200.453873 135.079211,201.086356 133.214737,201.086356" id="Fill-14" fill="#77B446"></path>
                <path d="M81.4761842,244.518486 C79.1182895,244.518486 76.7801316,243.509683 75.1485526,241.552817 L61.5696053,225.254842 C58.6498684,221.75044 59.1143421,216.536092 62.6064474,213.604754 C66.0972368,210.676056 71.2946053,211.140845 74.2143421,214.645246 L87.7946053,230.943222 C90.7143421,234.447623 90.2498684,239.661972 86.7577632,242.59331 C85.2156579,243.886004 83.3406579,244.518486 81.4761842,244.518486" id="Fill-16" fill="#77B446"></path>
                <path d="M185.609211,76.5450264 C170.742105,76.5450264 158.646053,92.4363116 158.646053,111.969322 C158.646053,131.501012 170.742105,147.392298 185.609211,147.392298 C200.477632,147.392298 212.573684,131.501012 212.573684,111.969322 C212.573684,92.4363116 200.477632,76.5450264 185.609211,76.5450264 M185.609211,163.93191 C161.652632,163.93191 142.164474,140.621171 142.164474,111.969322 C142.164474,83.3148327 161.652632,60.0054137 185.609211,60.0054137 C209.565789,60.0054137 229.057895,83.3148327 229.057895,111.969322 C229.057895,140.621171 209.565789,163.93191 185.609211,163.93191" id="Fill-18" fill="#77B446"></path>
                <path d="M263.383421,252.757658 C262.405789,252.757658 261.426842,252.578081 260.49,252.217606 C258.797895,251.563996 254.845263,250.036268 224.105789,217.790229 C221.174211,214.713644 221.282105,209.833363 224.347895,206.890141 C227.413684,203.945599 232.276842,204.055194 235.211053,207.131778 C243.976842,216.328521 254.128158,226.608011 260.628158,232.787588 C266.037368,215.274824 275.729474,172.10757 279.795263,143.837324 C280.401842,139.623856 284.303158,136.708363 288.496579,137.307835 C292.696579,137.916549 295.609737,141.82632 295.003158,146.039789 C292.751842,161.693398 288.049211,185.838644 283.024211,207.556954 C273.662368,248.01206 270.553158,249.842165 267.546579,251.611532 C266.254474,252.372095 264.820263,252.757658 263.383421,252.757658" id="Fill-20" fill="#77B446"></path>
            </g>
        </g>
    </g>
</svg>
